X:47
T:Miss Molly's Gigg THO4.047
M:2/4
L:1/8
Z:vmp. Peter Dunk 2010/11.from a transcription by Fynn Titford-Mock 2007
B:Thompson's Compleat Collection of 200 Favourite Country Dances Volume IV.
Q:1/4=140
K:G
d>Bc>A|B>G G2|d>Bc>A|B4|D>FA>c|B>G Te2|A>FE>^c|d4:|
d=fed|ec c2|egfe|f>d d2|e>c a2|d>B g2|e>cB>A|G4:|
